X:730
T:Mrs. Ronald
R:Reel
B:The Athole Collection
M:C|
L:1/8
K:F
g|a/g/f cf Afcf|a/g/f cf g/g/g ~g2|a/g/f cf Afce|fdcA F/F/F ~F:|
c|Acfc Acfc|dBcA G/G/G GB|Acfc Acfc|fdcA F/F/F ~F2|
Acfc Acfc|dBcA G/G/G G2|Acfc dfga|fdcA F/F/F ~F2||

